src/assets/icons/Sc-Grey.svg

<svg width="24" height="25" viewBox="0 0 24 25" fill="none" xmlns="http://www.w3.org/2000/svg">
<g id="Sc-Grey">
<g id="Group">
<path id="Vector" d="M12 2.99826C6.48 2.99826 2 7.47826 2 12.9983C2 18.5183 6.48 22.9983 12 22.9983C17.52 22.9983 22 18.5183 22 12.9983C22 7.47826 17.52 2.99826 12 2.99826ZM12 20.9983C7.59 20.9983 4 17.4083 4 12.9983C4 8.58826 7.59 4.99826 12 4.99826C16.41 4.99826 20 8.58826 20 12.9983C20 17.4083 16.41 20.9983 12 20.9983Z" fill="#BABABA"/>
<path id="Vector_2" d="M6.79 15.1583C7.27 15.4483 7.95 15.6783 8.7 15.6783C9.37 15.6783 9.98 15.3683 9.98 14.7383C9.98 14.2683 9.63 13.9883 8.89 13.5883C8.04 13.1283 7.22 12.4983 7.22 11.4483C7.22 9.80827 8.64 8.81827 10.4 8.81827C11.39 8.81827 11.96 9.03827 12.31 9.21827L11.77 10.6583C11.51 10.5083 10.93 10.2983 10.27 10.3083C9.45 10.3083 9.03 10.7083 9.03 11.1483C9.03 11.6183 9.52 11.9183 10.21 12.2983C11.19 12.7983 11.82 13.4583 11.82 14.4283C11.82 16.2283 10.33 17.1483 8.53 17.1483C7.4 17.1383 6.6 16.8483 6.22 16.5683L6.79 15.1583Z" fill="#BABABA"/>
<path id="Vector_3" d="M16.9 16.8383C16.53 17.0183 15.93 17.1483 15.23 17.1483C13.78 17.1483 12.76 16.2583 12.76 14.7483C12.76 12.6583 14.36 11.0283 16.59 11.0283C17.09 11.0283 17.53 11.1283 17.79 11.2183L17.36 12.5483C17.15 12.4683 16.91 12.3983 16.57 12.3983C15.35 12.3983 14.58 13.4383 14.58 14.5483C14.58 15.3483 15.1 15.7583 15.73 15.7583C16.23 15.7583 16.59 15.6383 16.89 15.5183L16.9 16.8383Z" fill="#BABABA"/>
</g>
</g>
</svg>

<?xml version="1.0" encoding="utf-8"?>
<!-- Generator: Adobe Illustrator 21.0.0, SVG Export Plug-In . SVG Version: 6.00 Build 0)  -->
<svg version="1.1" id="Layer_1" xmlns="http://www.w3.org/2000/svg" xmlns:xlink="http://www.w3.org/1999/xlink" x="0px" y="0px"
	 viewBox="0 0 24 25" style="enable-background:new 0 0 24 25;" xml:space="preserve">
<style type="text/css">
	.st0{fill:#BABABA;}
</style>
<path class="st0" d="M12,3C6.5,3,2,7.5,2,13c0,5.5,4.5,10,10,10s10-4.5,10-10C22,7.5,17.5,3,12,3z M12,21c-4.4,0-8-3.6-8-8
	c0-4.4,3.6-8,8-8s8,3.6,8,8C20,17.4,16.4,21,12,21z"/>
<path class="st0" d="M6.8,15.2c0.5,0.3,1.2,0.5,1.9,0.5c0.7,0,1.3-0.3,1.3-0.9c0-0.5-0.3-0.8-1.1-1.2c-0.9-0.5-1.7-1.1-1.7-2.1
	c0-1.6,1.4-2.6,3.2-2.6c1,0,1.6,0.2,1.9,0.4l-0.5,1.4c-0.3-0.2-0.8-0.4-1.5-0.4c-0.8,0-1.2,0.4-1.2,0.8c0,0.5,0.5,0.8,1.2,1.1
	c1,0.5,1.6,1.2,1.6,2.1c0,1.8-1.5,2.7-3.3,2.7c-1.1,0-1.9-0.3-2.3-0.6L6.8,15.2z"/>
<path class="st0" d="M16.9,16.8c-0.4,0.2-1,0.3-1.7,0.3c-1.4,0-2.5-0.9-2.5-2.4c0-2.1,1.6-3.7,3.8-3.7c0.5,0,0.9,0.1,1.2,0.2
	l-0.4,1.3c-0.2-0.1-0.5-0.1-0.8-0.1c-1.2,0-2,1-2,2.1c0,0.8,0.5,1.2,1.1,1.2c0.5,0,0.9-0.1,1.2-0.2L16.9,16.8z"/>
</svg>
